X:20
T:Saltarello II
C:Anon 14th C, British Library MS Add. 29987
P:A1A2B A1A2C A1A2B A1A2B A2 D
M:C|
L:1/4
K:E minor
P:A
 |: cd | eA eA | eA e2 | dB/c/ d/c/B/c/ | Ae A2 | AB c/B/c/B/ | Gd G2 | 
A2 d3/c/ |  [1 B/c/B/A/ B/c/G/A/ | B2 F2 | B2 :|]  [2 B/c/B/A/ B/A/B/G/ | A2 e2 | | A2 :| 
P:B
Bc | dA dA | dA d/c/B/c/ | Ae A2 |AB  c/B/c/B/ | dA dA | dA d/c/B/c/ | Ae A2 | AB |:
P:C
FG | AG AE | AG AE  | AB AF/G/ |  A3z/G/  | F/G/A/G/ F/G/F/E/ |  F/G/A/F/ A/F/A//G//F//G// | E2 :| 
P:D
fg | ag ae | ag ae | ab a2 |] 

